X:1
T:Stanley, 77.77 D
T:Stanley, 77.77 D
T:Joseph Barnby (1838-1896)
T:Public Domain Courtesy of the Cyber Hymnal™
C:Joseph Barnby (1838-1896)
Z:Public Domain
Z:Courtesy of the Cyber Hymnal™
%%score ( 1 2 ) ( 3 4 )
L:1/8
Q:1/4=115
M:4/4
K:Db
V:1 treble 
V:2 treble 
V:3 bass 
V:4 bass 
V:1
 [DF]2 [DA]2 | [DF]2 (ED) [CE]2 C2 | D4 [DA]2 [Fd]2 | [Ec]2 (BA) [FB]2 [E=G]2 | [EA]4 [Ae]2 [Ac]2 | %5
 [Ad]2 A2 [Ae]2 [Ac]2 | [Ad]4 [Dd]2 [Ec]2 | [FB]2 ([Ec][Dd]) [Ec]2 [DB]2 | [CA]4 E2 [EF]2 | %9
 [EG]2 [EG]2 [=DF]3 [DB] | B4 G2 [GA]2 | [GB]2 [GB]2 A3 z x | [Gd]4 [GB]2 [GB]2 | %13
 [Ge]2 [Gc]2 [GB]2 [GA]2 | [Ff]2 [Ad]2 [DB]2 [EG]2 | (FG) [DA]2 [B,F]2 [CE]2 | D4 |] %17
V:2
 x4 | x2 C2 x C2 x | D4 x4 | x2 E2 x4 | x8 | x8 | x8 | x8 | x4 E2 x2 | x8 | E2 =D2 x4 | %11
 x4 F2 (F2 d) | x8 | x8 | x8 | D2 x6 | D4 |] %17
V:3
 [D,A,]2 [F,A,]2 | A,2 [F,A,]2 [A,,G,]2 [A,,G,]2 | [D,F,]4 [F,A,]2 [D,A,]2 | %3
 A,2 [C,C]2 [D,B,]2 [E,D]2 | [A,C]4 [G,C]2 [A,E]2 | [F,A,]2 A,2 [G,C]2 [A,E]2 | %6
 [F,D]4 [F,A,]2 [E,A,]2 | [D,A,]2 A,2 [E,=G,]2 [E,G,]2 | A,4 [A,,C]2 [A,,_C]2 | %9
 [B,,B,]2 [B,,B,]2 [A,B,]3 [A,B,] | B,4 [E,B,]2 [E,_C]2 | [D,D]2 [D,D]2 [_CD]2 [CD]2 x | %12
 [B,D]2 [G,B,]2 [G,D]2 [E,E]2 | [C,A,]2 [A,C]2 [B,D]2 [CE]2 | D2 [F,A,]2 G,2 [E,B,]2 | %15
 A,2 [A,,F,]2 [A,,G,]2 [A,,G,]2 | [D,F,]4 |] %17
V:4
 x4 | A,2 x6 | x8 | A,2 x6 | x8 | x2 A,2 x4 | x8 | x2 (E,F,) x4 | A,4 x4 | x8 | G,2 F,2 x4 | x9 | %12
 x8 | x8 | x8 | x8 | x4 |] %17

